**kern	**kern	**dynam
*part1	*part1	*part1
*staff2	*staff1	*
*I"Piano	*	*
*clefF4	*clefG2	*
*k[b-e-]	*k[b-e-]	*
=1	=1	=1
8CCL 8C	16r	.
.	(16G'LL 16c 16e-	<
8CC 8C	16r	.
.	16G' 16c 16e-	.
8DD 8D	16r	.
.	16G' 16B-X 16d	.
8DDJ 8D	16r	.
.	16G'JJ) 16B- 16d	.
=	=	=
(8EE-L 8E-	16r	[
.	(16G'LL 16B- 16c	.
8CCJ 8C	16r	.
.	16G'JJ) 16B- 16e-	.
4DD) 4D	16r	.
.	(8F#X'L 8A 8d	.
.	16F#'Jk) 16A 16c	.
=	=	=
!	!	!LO:DY:a
2GG: 2D: 2B-:	4r	p
.	8r	.
.	8G 8g	.
=	=	=
*^	*	*
(4B-	[4C [4E-	((4d 4dd	>
8A)	8C] 8E-]	8c)) 8cc	]
*v	*v	*	*
8r	8r	p
=	=	=
*^	*	*
(4G	2D	(4B- 4b-	.
4B-)	.	8AL 8a	.
.	.	8GJ) 8g	.
=	=	=	=
(4f	[4E- [4G	((4d 4dd	>
8e-)	8E-] 8G]	8c)) 8cc	]
*v	*v	*	*
8r	8r	.
=	=	=
!	!	!LO:DY:a
2F 2d	(8B-L 8b-	p <
.	16cL 16cc	.
.	16B-JJ 16b-	.
.	8AL 8a	.
.	8B-J 8b-	[
=	=	=
*^	*	*
*	*^	*	*
!	!	!	!	!LO:DY:a
[2e-	[2F	4B-/	((2c 2cc	>
.	.	8A/L	.	.
.	.	8G/J	.	.
*	*v	*v	*	*
=	=	=	=
4A 4e-]	4F]	4c))) 4f	]
*v	*v	*	*
4r	4r	.
=||	=||	=||
*-	*-	*-
!!!system-decoration: {(s1,s2)}
